; G-Code generated by Simplify3D(TM) Version 2.2.0
; Jul 19, 2015 at 12:38:08 PM
; Settings Summary
;   processName,Process1
;   applyToModels,vslot
;   profileLabel,ABS2015x2Jan.fff
;   printMaterial,ABS
;   printQuality,Medium
;   extruderName,Primary Extruder
;   extruderToolheadNumber,0
;   extruderDiameter,0.6
;   extruderAutoWidth,0
;   extruderWidth,0.6
;   extrusionMultiplier,1.05
;   extruderUseRetract,1
;   extruderRetractionDistance,8.4
;   extruderExtraRestartDistance,0
;   extruderRetractionZLift,0.1
;   extruderRetractionSpeed,3600
;   extruderUseCoasting,0
;   extruderCoastingDistance,1
;   extruderUseWipe,0
;   extruderWipeDistance,5
;   primaryExtruder,0
;   layerHeight,0.2
;   topSolidLayers,4
;   bottomSolidLayers,4
;   perimeterOutlines,4
;   printPerimetersInsideOut,1
;   startPointOption,2
;   startPointOriginX,0
;   startPointOriginY,0
;   startPointOriginZ,300
;   sequentialIslands,0
;   spiralVaseMode,0
;   firstLayerHeightPercentage,110
;   firstLayerWidthPercentage,100
;   firstLayerUnderspeed,0.14
;   useRaft,0
;   raftExtruder,0
;   raftLayers,3
;   raftOffset,3
;   raftSeparationDistance,0.14
;   raftInfill,85
;   disableRaftBaseLayers,0
;   useSkirt,1
;   skirtExtruder,0
;   skirtLayers,1
;   skirtOutlines,4
;   skirtOffset,4
;   infillExtruder,0
;   externalInfillPattern,Rectilinear
;   infillPercentage,50
;   outlineOverlapPercentage,15
;   infillExtrusionWidthPercentage,150
;   minInfillLength,5
;   infillLayerInterval,1
;   randomInfillStartPoint,0
;   infillAngles,45,-45
;   generateSupport,0
;   supportExtruder,0
;   supportInfill,30
;   supportExtraInflation,0
;   denseSupportLayers,0
;   denseSupportInfill,70
;   supportLayerInterval,1
;   supportHorizontalPartOffset,0.3
;   supportUpperSeparationLayers,1
;   supportLowerSeparationLayers,1
;   supportGridSpacing,4
;   maxOverhangAngle,45
;   supportAngles,0
;   temperatureName,Primary Extruder,Heated Bed
;   temperatureNumber,0,1
;   temperatureSetpointCount,1,1
;   temperatureSetpointLayers,1,1
;   temperatureSetpointTemperatures,245,90
;   temperatureStabilizeAtStartup,1,0
;   temperatureHeatedBed,0,1
;   temperatureRelayBetweenLayers,0,0
;   temperatureRelayBetweenLoops,0,0
;   fanLayers,1
;   fanSpeeds,0
;   blipFanToFullPower,1
;   adjustSpeedForCooling,1
;   minSpeedLayerTime,15
;   minCoolingSpeedSlowdown,20
;   increaseFanForCooling,0
;   minFanLayerTime,60
;   maxCoolingFanSpeed,100
;   increaseFanForBridging,0
;   bridgingFanSpeed,100
;   use5D,1
;   relativeEdistances,0
;   allowEaxisZeroing,1
;   independentExtruderAxes,0
;   includeM10123,0
;   stickySupport,1
;   detectArcs,0
;   arcReplaceG2G3,0
;   arcRadialCompensation,1
;   gcodeXoffset,0
;   gcodeYoffset,0
;   gcodeZoffset,0
;   overrideMachineDefinition,0
;   machineTypeOverride,1
;   strokeXoverride,108
;   strokeYoverride,108
;   strokeZoverride,241
;   originOffsetXoverride,54
;   originOffsetYoverride,54
;   originOffsetZoverride,0
;   homeXdirOverride,0
;   homeYdirOverride,0
;   homeZdirOverride,1
;   flipXoverride,1
;   flipYoverride,-1
;   flipZoverride,1
;   startingGcode,G28 ; home all axes
;   layerChangeGcode,
;   toolChangeGcode,
;   endingGcode,M104 S0 ; turn off extruder,M140 S0 ; turn off bed,G28 ; home axes,M84 ; disable motors
;   createX3G,0
;   celebration,0
;   celebrationSong,Random Song
;   createMB5G,0
;   postProcessing,
;   defaultSpeed,6000
;   outlineUnderspeed,0.5
;   solidInfillUnderspeed,0.8
;   supportUnderspeed,0.8
;   rapidXYspeed,9000
;   rapidZspeed,1200
;   minBridgingArea,50
;   bridgingExtrusionMultiplier,0.95
;   bridgingSpeedMultiplier,0.7
;   filamentDiameter,1.75
;   filamentPricePerKg,46
;   useMinPrintHeight,0
;   minPrintHeight,0
;   useMaxPrintHeight,0
;   maxPrintHeight,0
;   useDiaphragm,1
;   diaphragmLayerInterval,5
;   robustSlicing,1
;   mergeAllIntoSolid,0
;   onlyRetractWhenCrossingOutline,1
;   retractBetweenLayers,1
;   useRetractionMinTravel,0
;   retractionMinTravel,3
;   useRetractionOozeRate,0
;   retractionOozeRate,6000
;   onlyWipeOutlines,1
;   toolChangeRetractionDistance,12
;   toolChangeExtraRestartDistance,-0.5
;   toolChangeRetractionSpeed,600
;   allowThinWallGapFill,1
;   thinWallAllowedOverlapPercentage,10
G90
M82
M106 S0
M140 S90
M104 S245 T0
M109 S245 T0
G28 ; home all axes
G92 E0
G1 E-8.4 F3600
G1 Z0.32 F1200
; layer 1, Z = 0.22
T0
; tool H0.22 W0.6
G1 X18.1 Y-14.075 F9000
G1 Z0.22 F1200
G1 E0 F1080
G92 E0
G1 X18.1 Y14.075 E1.622 F1200
G1 X17.78 Y14.846 E1.6702
G1 X14.846 Y17.78 E1.9093
G1 X14.075 Y18.1 E1.9574
G1 X-14.075 Y18.1 E3.5795
G1 X-14.846 Y17.78 E3.6276
G1 X-17.78 Y14.846 E3.8667
G1 X-18.1 Y14.075 E3.9148
G1 X-18.1 Y-14.075 E5.5369
G1 X-17.78 Y-14.846 E5.585
G1 X-14.846 Y-17.78 E5.8241
G1 X-14.075 Y-18.1 E5.8722
G1 X14.075 Y-18.1 E7.4943
G1 X14.846 Y-17.78 E7.5424
G1 X17.78 Y-14.846 E7.7815
G1 X18.1 Y-14.075 E7.8296
G1 X17.5 Y-13.955 F9000
G92 E0
G1 X17.5 Y13.955 E1.6083 F1200
G1 X17.272 Y14.507 E1.6427
G1 X14.507 Y17.272 E1.868
G1 X13.955 Y17.5 E1.9024
G1 X-13.955 Y17.5 E3.5107
G1 X-14.507 Y17.272 E3.5451
G1 X-17.272 Y14.507 E3.7704
G1 X-17.5 Y13.955 E3.8048
G1 X-17.5 Y-13.955 E5.4131
G1 X-17.272 Y-14.507 E5.4475
G1 X-14.507 Y-17.272 E5.6728
G1 X-13.955 Y-17.5 E5.7072
G1 X13.955 Y-17.5 E7.3155
G1 X14.507 Y-17.272 E7.3499
G1 X17.272 Y-14.507 E7.5752
G1 X17.5 Y-13.955 E7.6096
G1 X16.9 Y-13.836 F9000
G92 E0
G1 X16.9 Y13.836 E1.5945 F1200
G1 X16.763 Y14.167 E1.6152
G1 X14.167 Y16.763 E1.8267
G1 X13.836 Y16.9 E1.8474
G1 X-13.836 Y16.9 E3.4419
G1 X-14.167 Y16.763 E3.4625
G1 X-16.763 Y14.167 E3.6741
G1 X-16.9 Y13.836 E3.6948
G1 X-16.9 Y-13.836 E5.2893
G1 X-16.763 Y-14.167 E5.3099
G1 X-14.167 Y-16.763 E5.5215
G1 X-13.836 Y-16.9 E5.5421
G1 X13.836 Y-16.9 E7.1367
G1 X14.167 Y-16.763 E7.1573
G1 X16.763 Y-14.167 E7.3689
G1 X16.9 Y-13.836 E7.3895
G1 X16.3 Y-13.717 F9000
G92 E0
G1 X16.3 Y13.717 E1.5808 F1200
G1 X16.254 Y13.827 E1.5877
G1 X13.827 Y16.254 E1.7855
G1 X13.717 Y16.3 E1.7924
G1 X-13.717 Y16.3 E3.3731
G1 X-13.827 Y16.254 E3.38
G1 X-16.254 Y13.827 E3.5778
G1 X-16.3 Y13.717 E3.5847
G1 X-16.3 Y-13.717 E5.1655
G1 X-16.254 Y-13.827 E5.1724
G1 X-13.827 Y-16.254 E5.3702
G1 X-13.717 Y-16.3 E5.3771
G1 X13.717 Y-16.3 E6.9579
G1 X13.827 Y-16.254 E6.9647
G1 X16.254 Y-13.827 E7.1626
G1 X16.3 Y-13.717 E7.1694
G92 E0
G1 E-8.4 F3600
G1 Z0.32 F1200
G1 X10.325 Y-10.325 F9000
G1 Z0.22 F1200
G1 E0 F3600
G92 E0
G1 X-10.325 Y-10.325 E1.1899 F600
G1 X-10.325 Y10.325 E2.3798
G1 X10.325 Y10.325 E3.5698
G1 X10.325 Y-10.325 E4.7597
G1 X11.7 Y-11.7 F9000
G92 E0
G1 X11.7 Y11.7 E1.3484 F600
G1 X-11.7 Y11.7 E2.6968
G1 X-11.7 Y-11.7 E4.0451
G1 X11.7 Y-11.7 E5.3935
G1 X-11.184 Y-11.179 F9000
G92 E0
G1 X-11.179 Y-11.184 E0.0004 F1200
G1 X-10.33 Y-11.184 E0.0493
G1 X-10.673 Y-10.841 E0.0773
G1 X-9.824 Y-10.841 E0.1262
G1 X-9.481 Y-11.184 E0.1541
G1 X-8.633 Y-11.184 E0.203
G1 X-8.976 Y-10.841 E0.231
G1 X-8.127 Y-10.841 E0.2799
G1 X-7.784 Y-11.184 E0.3078
G1 X-6.936 Y-11.184 E0.3567
G1 X-7.279 Y-10.841 E0.3847
G1 X-6.43 Y-10.841 E0.4336
G1 X-6.087 Y-11.184 E0.4615
G1 X-5.239 Y-11.184 E0.5104
G1 X-5.582 Y-10.841 E0.5384
G1 X-4.733 Y-10.841 E0.5873
G1 X-4.39 Y-11.184 E0.6152
G1 X-3.542 Y-11.184 E0.6641
G1 X-3.885 Y-10.841 E0.6921
G1 X-3.036 Y-10.841 E0.741
G1 X-2.693 Y-11.184 E0.7689
G1 X-1.845 Y-11.184 E0.8178
G1 X-2.188 Y-10.841 E0.8458
G1 X-1.339 Y-10.841 E0.8947
G1 X-0.996 Y-11.184 E0.9226
G1 X-0.148 Y-11.184 E0.9715
G1 X-0.491 Y-10.841 E0.9995
G1 X0.358 Y-10.841 E1.0484
G1 X0.701 Y-11.184 E1.0763
G1 X1.549 Y-11.184 E1.1252
G1 X1.206 Y-10.841 E1.1532
G1 X2.055 Y-10.841 E1.202
G1 X2.398 Y-11.184 E1.23
G1 X3.246 Y-11.184 E1.2789
G1 X2.903 Y-10.841 E1.3068
G1 X3.752 Y-10.841 E1.3557
G1 X4.095 Y-11.184 E1.3837
G1 X4.944 Y-11.184 E1.4326
G1 X4.6 Y-10.841 E1.4605
G1 X5.449 Y-10.841 E1.5094
G1 X5.792 Y-11.184 E1.5374
G1 X6.641 Y-11.184 E1.5863
G1 X6.298 Y-10.841 E1.6142
G1 X7.146 Y-10.841 E1.6631
G1 X7.489 Y-11.184 E1.6911
G1 X8.338 Y-11.184 E1.74
G1 X7.995 Y-10.841 E1.7679
G1 X8.843 Y-10.841 E1.8168
G1 X9.186 Y-11.184 E1.8448
G1 X10.035 Y-11.184 E1.8937
G1 X9.692 Y-10.841 E1.9216
G1 X10.54 Y-10.841 E1.9705
G1 X10.883 Y-11.184 E1.9985
G1 X11.184 Y-11.184 E2.0158
G1 X11.184 Y-10.636 E2.0474
G1 X10.841 Y-10.293 E2.0753
G1 X10.841 Y-9.445 E2.1242
G1 X11.184 Y-9.788 E2.1522
G1 X11.184 Y-8.939 E2.2011
G1 X10.841 Y-8.596 E2.229
G1 X10.841 Y-7.748 E2.2779
G1 X11.184 Y-8.091 E2.3059
G1 X11.184 Y-7.242 E2.3548
G1 X10.841 Y-6.899 E2.3827
G1 X10.841 Y-6.051 E2.4316
G1 X11.184 Y-6.394 E2.4596
G1 X11.184 Y-5.545 E2.5085
G1 X10.841 Y-5.202 E2.5364
G1 X10.841 Y-4.354 E2.5853
G1 X11.184 Y-4.697 E2.6133
G1 X11.184 Y-3.848 E2.6621
G1 X10.841 Y-3.505 E2.6901
G1 X10.841 Y-2.657 E2.739
G1 X11.184 Y-3 E2.7669
G1 X11.184 Y-2.151 E2.8158
G1 X10.841 Y-1.808 E2.8438
G1 X10.841 Y-0.959 E2.8927
G1 X11.184 Y-1.302 E2.9206
G1 X11.184 Y-0.454 E2.9695
G1 X10.841 Y-0.111 E2.9975
G1 X10.841 Y0.738 E3.0464
G1 X11.184 Y0.395 E3.0743
G1 X11.184 Y1.243 E3.1232
G1 X10.841 Y1.586 E3.1512
G1 X10.841 Y2.435 E3.2001
G1 X11.184 Y2.092 E3.228
G1 X11.184 Y2.94 E3.2769
G1 X10.841 Y3.283 E3.3049
G1 X10.841 Y4.132 E3.3538
G1 X11.184 Y3.789 E3.3817
G1 X11.184 Y4.637 E3.4306
G1 X10.841 Y4.98 E3.4586
G1 X10.841 Y5.829 E3.5075
G1 X11.184 Y5.486 E3.5354
G1 X11.184 Y6.334 E3.5843
G1 X10.841 Y6.677 E3.6123
G1 X10.841 Y7.526 E3.6612
G1 X11.184 Y7.183 E3.6891
G1 X11.184 Y8.031 E3.738
G1 X10.841 Y8.374 E3.766
G1 X10.841 Y9.223 E3.8149
G1 X11.184 Y8.88 E3.8428
G1 X11.184 Y9.728 E3.8917
G1 X10.841 Y10.071 E3.9197
G1 X10.841 Y10.841 E3.964
G1 X10.071 Y10.841 E4.0083
G1 X9.728 Y11.184 E4.0363
G1 X10.577 Y11.184 E4.0852
G1 X11.184 Y10.577 E4.1347
G1 X11.184 Y11.184 E4.1696
G1 X10.577 Y11.184 E4.2046
G1 X9.728 Y11.184 F9000
G92 E0
G1 X8.88 Y11.184 E0.0489 F1200
G1 X9.223 Y10.841 E0.0768
G1 X8.374 Y10.841 E0.1257
G1 X8.031 Y11.184 E0.1537
G1 X7.183 Y11.184 E0.2026
G1 X7.526 Y10.841 E0.2305
G1 X6.677 Y10.841 E0.2794
G1 X6.334 Y11.184 E0.3074
G1 X5.486 Y11.184 E0.3563
G1 X5.829 Y10.841 E0.3842
G1 X4.98 Y10.841 E0.4331
G1 X4.637 Y11.184 E0.4611
G1 X3.789 Y11.184 E0.51
G1 X4.132 Y10.841 E0.5379
G1 X3.283 Y10.841 E0.5868
G1 X2.94 Y11.184 E0.6148
G1 X2.092 Y11.184 E0.6637
G1 X2.435 Y10.841 E0.6916
G1 X1.586 Y10.841 E0.7405
G1 X1.243 Y11.184 E0.7685
G1 X0.395 Y11.184 E0.8174
G1 X0.738 Y10.841 E0.8453
G1 X-0.111 Y10.841 E0.8942
G1 X-0.454 Y11.184 E0.9222
G1 X-1.302 Y11.184 E0.9711
G1 X-0.959 Y10.841 E0.999
G1 X-1.808 Y10.841 E1.0479
G1 X-2.151 Y11.184 E1.0759
G1 X-3 Y11.184 E1.1248
G1 X-2.657 Y10.841 E1.1527
G1 X-3.505 Y10.841 E1.2016
G1 X-3.848 Y11.184 E1.2296
G1 X-4.697 Y11.184 E1.2785
G1 X-4.354 Y10.841 E1.3064
G1 X-5.202 Y10.841 E1.3553
G1 X-5.545 Y11.184 E1.3833
G1 X-6.394 Y11.184 E1.4321
G1 X-6.051 Y10.841 E1.4601
G1 X-6.899 Y10.841 E1.509
G1 X-7.242 Y11.184 E1.5369
G1 X-8.091 Y11.184 E1.5858
G1 X-7.748 Y10.841 E1.6138
G1 X-8.596 Y10.841 E1.6627
G1 X-8.939 Y11.184 E1.6906
G1 X-9.788 Y11.184 E1.7395
G1 X-9.445 Y10.841 E1.7675
G1 X-10.293 Y10.841 E1.8164
G1 X-10.636 Y11.184 E1.8443
G1 X-11.184 Y11.184 E1.8759
G1 X-11.184 Y10.883 E1.8932
G1 X-10.841 Y10.54 E1.9212
G1 X-10.841 Y9.692 E1.9701
G1 X-11.184 Y10.035 E1.998
G1 X-11.184 Y9.186 E2.0469
G1 X-10.841 Y8.843 E2.0749
G1 X-10.841 Y7.995 E2.1238
G1 X-11.184 Y8.338 E2.1517
G1 X-11.184 Y7.489 E2.2006
G1 X-10.841 Y7.146 E2.2286
G1 X-10.841 Y6.298 E2.2775
G1 X-11.184 Y6.641 E2.3054
G1 X-11.184 Y5.792 E2.3543
G1 X-10.841 Y5.449 E2.3823
G1 X-10.841 Y4.6 E2.4312
G1 X-11.184 Y4.944 E2.4591
G1 X-11.184 Y4.095 E2.508
G1 X-10.841 Y3.752 E2.536
G1 X-10.841 Y2.903 E2.5849
G1 X-11.184 Y3.246 E2.6128
G1 X-11.184 Y2.398 E2.6617
G1 X-10.841 Y2.055 E2.6897
G1 X-10.841 Y1.206 E2.7385
G1 X-11.184 Y1.549 E2.7665
G1 X-11.184 Y0.701 E2.8154
G1 X-10.841 Y0.358 E2.8433
G1 X-10.841 Y-0.491 E2.8922
G1 X-11.184 Y-0.148 E2.9202
G1 X-11.184 Y-0.996 E2.9691
G1 X-10.841 Y-1.339 E2.997
G1 X-10.841 Y-2.188 E3.0459
G1 X-11.184 Y-1.845 E3.0739
G1 X-11.184 Y-2.693 E3.1228
G1 X-10.841 Y-3.036 E3.1507
G1 X-10.841 Y-3.885 E3.1996
G1 X-11.184 Y-3.542 E3.2276
G1 X-11.184 Y-4.39 E3.2765
G1 X-10.841 Y-4.733 E3.3044
G1 X-10.841 Y-5.582 E3.3533
G1 X-11.184 Y-5.239 E3.3813
G1 X-11.184 Y-6.087 E3.4302
G1 X-10.841 Y-6.43 E3.4581
G1 X-10.841 Y-7.279 E3.507
G1 X-11.184 Y-6.936 E3.535
G1 X-11.184 Y-7.784 E3.5839
G1 X-10.841 Y-8.127 E3.6118
G1 X-10.841 Y-8.976 E3.6607
G1 X-11.184 Y-8.633 E3.6887
G1 X-11.184 Y-9.481 E3.7376
G1 X-10.841 Y-9.824 E3.7655
G1 X-10.841 Y-10.673 E3.8144
G1 X-11.184 Y-10.33 E3.8424
G92 E0
G1 E-8.4 F3600
G1 Z0.52 F1200
; layer 2, Z = 0.42
; tool H0.2 W0.6
G1 X-10.325 Y-10.325 F9000
G1 Z0.42 F1200
G1 E0 F3600
G92 E0
G1 X-10.325 Y10.325 E1.0817 F654
G1 X10.325 Y10.325 E2.1635
G1 X10.325 Y-10.325 E3.2452
G1 X-10.325 Y-10.325 E4.327
G1 X-11.7 Y-11.7 F9000
G92 E0
G1 X11.7 Y-11.7 E1.2258 F654
G1 X11.7 Y11.7 E2.4516
G1 X-11.7 Y11.7 E3.6774
G1 X-11.7 Y-11.7 E4.9032
G1 X-11.184 Y9.728 F9000
G92 E0
G1 X-11.184 Y8.88 E0.0444 F1307
G1 X-10.841 Y9.223 E0.0699
G1 X-10.841 Y8.374 E0.1143
G1 X-11.184 Y8.031 E0.1397
G1 X-11.184 Y7.183 E0.1842
G1 X-10.841 Y7.526 E0.2096
G1 X-10.841 Y6.677 E0.254
G1 X-11.184 Y6.334 E0.2794
G1 X-11.184 Y5.486 E0.3239
G1 X-10.841 Y5.829 E0.3493
G1 X-10.841 Y4.98 E0.3938
G1 X-11.184 Y4.637 E0.4192
G1 X-11.184 Y3.789 E0.4636
G1 X-10.841 Y4.132 E0.489
G1 X-10.841 Y3.283 E0.5335
G1 X-11.184 Y2.94 E0.5589
G1 X-11.184 Y2.092 E0.6033
G1 X-10.841 Y2.435 E0.6288
G1 X-10.841 Y1.586 E0.6732
G1 X-11.184 Y1.243 E0.6986
G1 X-11.184 Y0.395 E0.7431
G1 X-10.841 Y0.738 E0.7685
G1 X-10.841 Y-0.111 E0.8129
G1 X-11.184 Y-0.454 E0.8383
G1 X-11.184 Y-1.302 E0.8828
G1 X-10.841 Y-0.959 E0.9082
G1 X-10.841 Y-1.808 E0.9526
G1 X-11.184 Y-2.151 E0.9781
G1 X-11.184 Y-3 E1.0225
G1 X-10.841 Y-2.657 E1.0479
G1 X-10.841 Y-3.505 E1.0924
G1 X-11.184 Y-3.848 E1.1178
G1 X-11.184 Y-4.697 E1.1622
G1 X-10.841 Y-4.354 E1.1876
G1 X-10.841 Y-5.202 E1.2321
G1 X-11.184 Y-5.545 E1.2575
G1 X-11.184 Y-6.394 E1.302
G1 X-10.841 Y-6.051 E1.3274
G1 X-10.841 Y-6.899 E1.3718
G1 X-11.184 Y-7.242 E1.3972
G1 X-11.184 Y-8.091 E1.4417
G1 X-10.841 Y-7.748 E1.4671
G1 X-10.841 Y-8.596 E1.5115
G1 X-11.184 Y-8.939 E1.5369
G1 X-11.184 Y-9.788 E1.5814
G1 X-10.841 Y-9.445 E1.6068
G1 X-10.841 Y-10.293 E1.6513
G1 X-11.184 Y-10.636 E1.6767
G1 X-11.184 Y-11.184 E1.7054
G1 X-10.883 Y-11.184 E1.7211
G1 X-10.54 Y-10.841 E1.7465
G1 X-9.692 Y-10.841 E1.791
G1 X-10.035 Y-11.184 E1.8164
G1 X-9.186 Y-11.184 E1.8608
G1 X-8.843 Y-10.841 E1.8863
G1 X-7.995 Y-10.841 E1.9307
G1 X-8.338 Y-11.184 E1.9561
G1 X-7.489 Y-11.184 E2.0006
G1 X-7.146 Y-10.841 E2.026
G1 X-6.298 Y-10.841 E2.0704
G1 X-6.641 Y-11.184 E2.0958
G1 X-5.792 Y-11.184 E2.1403
G1 X-5.449 Y-10.841 E2.1657
G1 X-4.6 Y-10.841 E2.2101
G1 X-4.944 Y-11.184 E2.2356
G1 X-4.095 Y-11.184 E2.28
G1 X-3.752 Y-10.841 E2.3054
G1 X-2.903 Y-10.841 E2.3499
G1 X-3.246 Y-11.184 E2.3753
G1 X-2.398 Y-11.184 E2.4197
G1 X-2.055 Y-10.841 E2.4451
G1 X-1.206 Y-10.841 E2.4896
G1 X-1.549 Y-11.184 E2.515
G1 X-0.701 Y-11.184 E2.5595
G1 X-0.358 Y-10.841 E2.5849
G1 X0.491 Y-10.841 E2.6293
G1 X0.148 Y-11.184 E2.6547
G1 X0.996 Y-11.184 E2.6992
G1 X1.339 Y-10.841 E2.7246
G1 X2.188 Y-10.841 E2.769
G1 X1.845 Y-11.184 E2.7944
G1 X2.693 Y-11.184 E2.8389
G1 X3.036 Y-10.841 E2.8643
G1 X3.885 Y-10.841 E2.9088
G1 X3.542 Y-11.184 E2.9342
G1 X4.39 Y-11.184 E2.9786
G1 X4.733 Y-10.841 E3.004
G1 X5.582 Y-10.841 E3.0485
G1 X5.239 Y-11.184 E3.0739
G1 X6.087 Y-11.184 E3.1183
G1 X6.43 Y-10.841 E3.1438
G1 X7.279 Y-10.841 E3.1882
G1 X6.936 Y-11.184 E3.2136
G1 X7.784 Y-11.184 E3.2581
G1 X8.127 Y-10.841 E3.2835
G1 X8.976 Y-10.841 E3.3279
G1 X8.633 Y-11.184 E3.3533
G1 X9.481 Y-11.184 E3.3978
G1 X9.824 Y-10.841 E3.4232
G1 X10.673 Y-10.841 E3.4676
G1 X10.33 Y-11.184 E3.4931
G1 X11.179 Y-11.184 F9000
G92 E0
G1 X11.184 Y-11.179 E0.0004 F1307
G1 X11.184 Y-10.33 E0.0449
G1 X10.841 Y-10.673 E0.0703
G1 X10.841 Y-9.824 E0.1147
G1 X11.184 Y-9.481 E0.1401
G1 X11.184 Y-8.633 E0.1846
G1 X10.841 Y-8.976 E0.21
G1 X10.841 Y-8.127 E0.2544
G1 X11.184 Y-7.784 E0.2798
G1 X11.184 Y-6.936 E0.3243
G1 X10.841 Y-7.279 E0.3497
G1 X10.841 Y-6.43 E0.3942
G1 X11.184 Y-6.087 E0.4196
G1 X11.184 Y-5.239 E0.464
G1 X10.841 Y-5.582 E0.4894
